www/assets/icons/chair.svg

<svg xmlns="http://www.w3.org/2000/svg" width="24" height="24" viewBox="0 0 24 24" fill='currentColor'><path d="M7 11v2h10v-2c0-1.86 1.28-3.41 3-3.86V6c0-1.65-1.35-3-3-3H7C5.35 3 4 4.35 4 6v1.14c1.72.45 3 2 3 3.86"/><path d="M21 9c-1.1 0-2 .9-2 2v4H5v-4c0-1.1-.9-2-2-2s-2 .9-2 2v5c0 1.65 1.35 3 3 3v1c0 .55.45 1 1 1s1-.45 1-1v-1h12v1c0 .55.45 1 1 1s1-.45 1-1v-1c1.65 0 3-1.35 3-3v-5c0-1.1-.9-2-2-2"/></svg>

<svg width="24" height="24" viewBox="0 0 24 24" xmlns="http://www.w3.org/2000/svg" fill='currentColor'><path d="M7 11V13H17V11C17 9.14 18.28 7.59 20 7.14V6C20 4.35 18.65 3 17 3H7C5.35 3 4 4.35 4 6V7.14C5.72 7.59 7 9.14 7 11Z"/><path d="M21 9C19.9 9 19 9.9 19 11V15H5V11C5 9.9 4.1 9 3 9C1.9 9 1 9.9 1 11V16C1 17.65 2.35 19 4 19V20C4 20.55 4.45 21 5 21C5.55 21 6 20.55 6 20V19H18V20C18 20.55 18.45 21 19 21C19.55 21 20 20.55 20 20V19C21.65 19 23 17.65 23 16V11C23 9.9 22.1 9 21 9Z"/></svg>
